X: 10
T:How D'ye Do, Sherborne
M:6/8
L:1/8
A:Sherborne
P:A(AB3)2(AC3)2A
K:D
P:A
|:FED FGA|BcB ABc|dcd Bed|cBc d2:|
P:B
A|cde ecA|ecA ABc|ded dcB|AFD G3 |
FGA D3 |GAB E3 |FGA Bed|cBc d2||
P:C
A|cde ecA|ecA ABc|ded dcB|AFD G3 |
M:4/4 
L:1/8
FGA2 D2D2|GAB2 E2E2|\
M:6/8
FGA Bed|cBc d2||
